assets/icons/bell.svg

<svg xmlns="http://www.w3.org/2000/svg" width="18" height="20" viewBox="0 0 18 20" fill="none">
<path fill-rule="evenodd" clip-rule="evenodd" d="M2.5146 14L3.6946 12.818C4.0726 12.44 4.2806 11.938 4.2806 11.404V6.72696C4.2806 5.36996 4.8706 4.07296 5.9006 3.17096C6.9386 2.26096 8.2606 1.86096 9.6376 2.04196C11.9646 2.35096 13.7196 4.45496 13.7196 6.93695V11.404C13.7196 11.938 13.9276 12.44 14.3046 12.817L15.4856 14H2.5146ZM10.9996 16.341C10.9996 17.24 10.0836 18 8.9996 18C7.9156 18 6.9996 17.24 6.9996 16.341V16H10.9996V16.341ZM17.5206 13.208L15.7196 11.404V6.93696C15.7196 3.45596 13.2176 0.498955 9.8996 0.0599553C7.9776 -0.196045 6.0376 0.390955 4.5826 1.66696C3.1186 2.94896 2.2806 4.79296 2.2806 6.72696L2.2796 11.404L0.478603 13.208C0.00960291 13.678 -0.129397 14.377 0.124603 14.99C0.379603 15.604 0.972603 16 1.6366 16H4.9996V16.341C4.9996 18.359 6.7936 20 8.9996 20C11.2056 20 12.9996 18.359 12.9996 16.341V16H16.3626C17.0266 16 17.6186 15.604 17.8726 14.991C18.1276 14.377 17.9896 13.677 17.5206 13.208Z" fill="white"/>
</svg>

<svg xmlns="http://www.w3.org/2000/svg" width="18" height="20" fill="none"><path fill-rule="evenodd" clip-rule="evenodd" d="m2.515 14 1.18-1.182c.378-.378.586-.88.586-1.414V6.727c0-1.357.59-2.654 1.62-3.556a4.66 4.66 0 0 1 3.737-1.129c2.327.309 4.082 2.413 4.082 4.895v4.467c0 .534.208 1.036.585 1.413L15.485 14H2.516ZM11 16.341C11 17.24 10.084 18 9 18s-2-.76-2-1.659V16h4v.341Zm6.52-3.133-1.8-1.804V6.937C15.72 3.456 13.218.499 9.9.06a6.722 6.722 0 0 0-5.317 1.607 6.728 6.728 0 0 0-2.302 5.06l-.001 4.677-1.801 1.804a1.631 1.631 0 0 0-.354 1.782C.38 15.604.973 16 1.637 16H5v.341C5 18.359 6.794 20 9 20s4-1.641 4-3.659V16h3.363c.664 0 1.256-.396 1.51-1.009a1.63 1.63 0 0 0-.352-1.783Z" fill="#fff"/></svg>
